X: 40098
T: Tibetan National Anthem
R: reel
M: 4/4
K: Gmajor
G3A c2e2|d3c A2Ac|G8|G2c2 A2G2|
E2A2 G2E2|C8|D3F G2A2|G2c2 A2G2|E8|
D3E G4|A2c2 G4|G2A2 G2 E2|C2 D6|
G4 G4|G2E2 C4|G2E2 G2c2|G4 A4|
G2A2 G2E2|G8|G2cA G2E2|C2DE G4|
E2G2 c2G2|E2G2 A2G2|A2c2 G2E2|C4 E4|E8|
A2c2 G4|A2E2 G4|C3D E2G2|A3G A2c2|
c2d2 G2E2|C2DE G2E2|D8|G2E2 G2c2|
G2A2 G2E2|G8|G2cA G2E2|C2DE A2G2|A8|
C2D2 E2A2|G4 A4|e4 d4|c8||

